laser-cuts/boites/h190_ep5_v2/cote_D_int_h190_ep5_v2.svg

<?xml version="1.0" encoding="UTF-8" standalone="no"?>
<!-- Generator: Fusion 360, Shaper Origin Export Add-In, Version 1.7.0  -->

<svg
   shaper:fusionaddin="version:1.7.0"
   width="29cm"
   height="9.75cm"
   version="1.1"
   x="0cm"
   y="0cm"
   viewBox="0 0 29 9.75"
   enable-background="new 0 0 29 9.75"
   xml:space="preserve"
   id="svg8"
   sodipodi:docname="cote_D_int_h190_ep5_v2.svg"
   inkscape:version="1.1.2 (0a00cf5339, 2022-02-04)"
   xmlns:inkscape="http://www.inkscape.org/namespaces/inkscape"
   xmlns:sodipodi="http://sodipodi.sourceforge.net/DTD/sodipodi-0.dtd"
   xmlns="http://www.w3.org/2000/svg"
   xmlns:svg="http://www.w3.org/2000/svg"
   xmlns:shaper="http://www.shapertools.com/namespaces/shaper"><defs
     id="defs12" /><sodipodi:namedview
     id="namedview10"
     pagecolor="#ffffff"
     bordercolor="#666666"
     borderopacity="1.0"
     inkscape:pageshadow="2"
     inkscape:pageopacity="0.0"
     inkscape:pagecheckerboard="0"
     inkscape:document-units="cm"
     showgrid="false"
     inkscape:zoom="0.6140158"
     inkscape:cx="590.37568"
     inkscape:cy="155.53346"
     inkscape:window-width="1870"
     inkscape:window-height="1016"
     inkscape:window-x="0"
     inkscape:window-y="0"
     inkscape:window-maximized="1"
     inkscape:current-layer="svg8" /><path
     id="path6"
     style="fill:none;stroke:#ff0000;stroke-opacity:1;stroke-width:0.1;stroke-miterlimit:4;stroke-dasharray:none"
     transform="matrix(1,0,0,-1,14.5,4.875)"
     d="m 7.25,4.375 v -0.5 H 2.4166667 v 0.5 z m -9.6666667,-0.5 H -7.25 v 0.5 h 4.8333333 z M 13.5,4.875 h -27 v -6.6666667 h -1 V -4.875 h 29 v 3.0833333 h -1 z" /></svg>

<?xml version="1.0" encoding="utf-8"?>
<!-- Generator: Fusion 360, Shaper Origin Export Add-In, Version 1.7.0  -->
<svg xmlns="http://www.w3.org/2000/svg" xmlns:xlink="http://www.w3.org/1999/xlink" xmlns:shaper="http://www.shapertools.com/namespaces/shaper" shaper:fusionaddin="version:1.7.0" width="29cm" height="9.75cm" version="1.1" x="0cm" y="0cm" viewBox="0 0 29 9.75" enable-background="new 0 0 29 9.75" xml:space="preserve"><path d="M13.5,4.875 L-13.5,4.875 -13.5,-1.7916667 -14.5,-1.7916667 -14.5,-4.875 14.5,-4.875 14.5,-1.7916667 13.5,-1.7916667 13.5,4.875z" transform="matrix(1,0,0,-1,14.5,4.875)" fill="rgb(0,0,0)" stroke-linecap="round" stroke-linejoin="round" /><path d="M-2.4166667,3.875 L-7.25,3.875 -7.25,4.375 -2.4166667,4.375 -2.4166667,3.875z" transform="matrix(1,0,0,-1,14.5,4.875)" fill="rgb(255,255,255)" stroke="rgb(0,0,0)" stroke-width="0.0010cm" stroke-linecap="round" stroke-linejoin="round" /><path d="M7.25,4.375 L7.25,3.875 2.4166667,3.875 2.4166667,4.375 7.25,4.375z" transform="matrix(1,0,0,-1,14.5,4.875)" fill="rgb(255,255,255)" stroke="rgb(0,0,0)" stroke-width="0.0010cm" stroke-linecap="round" stroke-linejoin="round" /></svg>
